packages/core/assets/Icons/list.svg

<svg viewBox="0 0 20 20" fill="none" xmlns="http://www.w3.org/2000/svg">
<path d="M8.33333 15.8333C8.09722 15.8333 7.89931 15.7535 7.73958 15.5937C7.57986 15.434 7.5 15.2361 7.5 15C7.5 14.7639 7.57986 14.566 7.73958 14.4062C7.89931 14.2465 8.09722 14.1666 8.33333 14.1666H16.6667C16.9028 14.1666 17.1007 14.2465 17.2604 14.4062C17.4201 14.566 17.5 14.7639 17.5 15C17.5 15.2361 17.4201 15.434 17.2604 15.5937C17.1007 15.7535 16.9028 15.8333 16.6667 15.8333H8.33333ZM8.33333 10.8333C8.09722 10.8333 7.89931 10.7535 7.73958 10.5937C7.57986 10.434 7.5 10.2361 7.5 9.99998C7.5 9.76387 7.57986 9.56595 7.73958 9.40623C7.89931 9.24651 8.09722 9.16665 8.33333 9.16665H16.6667C16.9028 9.16665 17.1007 9.24651 17.2604 9.40623C17.4201 9.56595 17.5 9.76387 17.5 9.99998C17.5 10.2361 17.4201 10.434 17.2604 10.5937C17.1007 10.7535 16.9028 10.8333 16.6667 10.8333H8.33333ZM8.33333 5.83331C8.09722 5.83331 7.89931 5.75345 7.73958 5.59373C7.57986 5.43401 7.5 5.23609 7.5 4.99998C7.5 4.76387 7.57986 4.56595 7.73958 4.40623C7.89931 4.24651 8.09722 4.16665 8.33333 4.16665H16.6667C16.9028 4.16665 17.1007 4.24651 17.2604 4.40623C17.4201 4.56595 17.5 4.76387 17.5 4.99998C17.5 5.23609 17.4201 5.43401 17.2604 5.59373C17.1007 5.75345 16.9028 5.83331 16.6667 5.83331H8.33333ZM4.16667 16.6666C3.70833 16.6666 3.31597 16.5035 2.98958 16.1771C2.66319 15.8507 2.5 15.4583 2.5 15C2.5 14.5416 2.66319 14.1493 2.98958 13.8229C3.31597 13.4965 3.70833 13.3333 4.16667 13.3333C4.625 13.3333 5.01736 13.4965 5.34375 13.8229C5.67014 14.1493 5.83333 14.5416 5.83333 15C5.83333 15.4583 5.67014 15.8507 5.34375 16.1771C5.01736 16.5035 4.625 16.6666 4.16667 16.6666ZM4.16667 11.6666C3.70833 11.6666 3.31597 11.5035 2.98958 11.1771C2.66319 10.8507 2.5 10.4583 2.5 9.99998C2.5 9.54165 2.66319 9.14929 2.98958 8.8229C3.31597 8.49651 3.70833 8.33331 4.16667 8.33331C4.625 8.33331 5.01736 8.49651 5.34375 8.8229C5.67014 9.14929 5.83333 9.54165 5.83333 9.99998C5.83333 10.4583 5.67014 10.8507 5.34375 11.1771C5.01736 11.5035 4.625 11.6666 4.16667 11.6666ZM4.16667 6.66665C3.70833 6.66665 3.31597 6.50345 2.98958 6.17706C2.66319 5.85067 2.5 5.45831 2.5 4.99998C2.5 4.54165 2.66319 4.14929 2.98958 3.8229C3.31597 3.49651 3.70833 3.33331 4.16667 3.33331C4.625 3.33331 5.01736 3.49651 5.34375 3.8229C5.67014 4.14929 5.83333 4.54165 5.83333 4.99998C5.83333 5.45831 5.67014 5.85067 5.34375 6.17706C5.01736 6.50345 4.625 6.66665 4.16667 6.66665Z" fill="currentColor"/>
</svg>

<svg xmlns="http://www.w3.org/2000/svg" width="20" height="20" fill="none" viewBox="0 0 20 20">
  <path fill="#201F1F" d="M8.333 15.833a.806.806 0 0 1-.593-.24A.806.806 0 0 1 7.5 15c0-.236.08-.434.24-.594.16-.16.357-.24.593-.24h8.334c.236 0 .434.08.593.24.16.16.24.358.24.594s-.08.434-.24.594a.806.806 0 0 1-.593.24H8.333Zm0-5a.806.806 0 0 1-.593-.24A.806.806 0 0 1 7.5 10c0-.236.08-.434.24-.594.16-.16.357-.24.593-.24h8.334c.236 0 .434.08.593.24.16.16.24.358.24.594s-.08.434-.24.594a.806.806 0 0 1-.593.24H8.333Zm0-5a.806.806 0 0 1-.593-.24A.806.806 0 0 1 7.5 5c0-.236.08-.434.24-.594.16-.16.357-.24.593-.24h8.334c.236 0 .434.08.593.24.16.16.24.358.24.594s-.08.434-.24.594a.806.806 0 0 1-.593.24H8.333ZM4.167 16.667c-.459 0-.851-.164-1.177-.49A1.605 1.605 0 0 1 2.5 15c0-.458.163-.85.49-1.177.326-.327.718-.49 1.177-.49.458 0 .85.163 1.177.49.326.326.49.719.49 1.177 0 .458-.164.85-.49 1.177-.327.326-.719.49-1.177.49Zm0-5c-.459 0-.851-.163-1.177-.49A1.605 1.605 0 0 1 2.5 10c0-.458.163-.85.49-1.177.326-.326.718-.49 1.177-.49.458 0 .85.164 1.177.49.326.326.49.719.49 1.177 0 .458-.164.85-.49 1.177-.327.327-.719.49-1.177.49Zm0-5c-.459 0-.851-.164-1.177-.49A1.605 1.605 0 0 1 2.5 5c0-.458.163-.85.49-1.177.326-.326.718-.49 1.177-.49.458 0 .85.164 1.177.49.326.326.49.719.49 1.177 0 .458-.164.85-.49 1.177-.327.326-.719.49-1.177.49Z"/>
</svg>
